X:1
T:Goodrest, 84.84.88.84
T:Goodrest, 84.84.88.84
T:Charles Edward Kettle (1833-1895)
T:Public Domain Courtesy of the Cyber Hymnal™
C:Charles Edward Kettle (1833-1895)
Z:Public Domain
Z:Courtesy of the Cyber Hymnal™
%%score ( 1 2 ) 3
L:1/8
Q:1/4=110
M:4/4
K:G
V:1 treble 
V:2 treble 
V:3 bass 
V:1
 [B,G]2 [B,G]2 [CF]2 [DG]2 | [EB]2 [EA]2 [CF]2 [B,G]2 | [CE]4 [CE]2 [CE]2 | [B,G]8 | %4
 [DA]2 [DA]2 [Fd]2 [DA]2 | [DG]2 (BA) [DG]2 [DF]2 | [B,E]4 [^CG]2 [CF]2 | D8 | %8
 [Fc]2 [Fc]2 [FB]2 [FA]2 | G2 [DF]2 [DG]2 D2 | [Ed]2 [Ed]2 [Ec]2 [EB]2 | [EA]2 E2 [DG]2 [DF]2 | %12
 G2 [FA]2 [=FB]2 [Fd]2 | [Ee]2 [EB]2 [Ed]2 [Ac]2 | [GB]4 [FB]2 [FA]2 | G8 |] %16
V:2
 x8 | x8 | x8 | x8 | x8 | x2 ^C2 x4 | x8 | D8 | x8 | G2 x2 D2 x2 | x8 | x2 E2 x4 | G2 x6 | x8 | %14
 x8 | G8 |] %16
V:3
 [G,,D,]2 [G,,D,]2 [A,,D,]2 [B,,G,]2 | [C,G,]2 [C,A,]2 [D,A,]2 [E,G,]2 | [C,G,]4 [C,G,]2 [C,G,]2 | %3
 [G,,G,]8 | [D,F,]2 [D,F,]2 [D,A,]2 [F,A,]2 | [E,A,]2 [A,,A,]2 [D,A,]2 [D,A,]2 | %6
 [G,,G,]4 [A,,G,]2 [A,,G,]2 | [D,F,]8 | [D,A,]2 [D,A,]2 [D,D]2 [D,C]2 | %9
 [G,B,]2 [A,C]2 [G,B,]2 [G,B,]2 | [E,^G,]2 [E,G,]2 [A,,A,]2 [B,,G,]2 | %11
 [C,A,]2 [C,A,]2 [D,B,]2 [D,A,]2 | [G,B,]2 [G,C]2 [G,D]2 [G,B,]2 | %13
 [C,C]2 [E,^G,]2 [A,,A,]2 [A,,E]2 | [D,D]4 [D,D]2 [D,C]2 | [G,B,]8 |] %16

